X: 051307
T: Eily Buckley's Fancy
S: "Johnny O'Leary of Sliabh Luachra" (#341)
Z: B.Black
L: 1/8
M: 2/4
Q: 280
R: polka
K: D
fe/f/ ge|fd de/f/|gB ed|cA Ae/g/|
f>a ge|fd fa/f/|e/f/e/d/ ce|d2 dc :|
A>G AG|FA de/f/|gB ed|cA BG/B/|
A>G AG|FA de/f/|ge/d/ ce|1 d2 dB :|2\
d2 d2||
